material/.icons/material/controller-classic-outline.svg

<svg xmlns="http://www.w3.org/2000/svg" viewBox="0 0 24 24"><path d="M17.5 7a5.5 5.5 0 015.5 5.5 5.5 5.5 0 01-5.5 5.5c-1.71 0-3.23-.78-4.24-2h-2.52c-1.01 1.22-2.53 2-4.24 2A5.5 5.5 0 011 12.5 5.5 5.5 0 016.5 7h11m-11 2A3.5 3.5 0 003 12.5 3.5 3.5 0 006.5 16c1.4 0 2.6-.82 3.16-2h4.68c.56 1.18 1.76 2 3.16 2a3.5 3.5 0 003.5-3.5A3.5 3.5 0 0017.5 9h-11m-.75 1.25h1.5v1.5h1.5v1.5h-1.5v1.5h-1.5v-1.5h-1.5v-1.5h1.5v-1.5m11 2.25a1 1 0 011 1 1 1 0 01-1 1 1 1 0 01-1-1 1 1 0 011-1m2-2a1 1 0 011 1 1 1 0 01-1 1 1 1 0 01-1-1 1 1 0 011-1z"/></svg>

<?xml version="1.0" encoding="UTF-8"?><!DOCTYPE svg PUBLIC "-//W3C//DTD SVG 1.1//EN" "http://www.w3.org/Graphics/SVG/1.1/DTD/svg11.dtd"><svg xmlns="http://www.w3.org/2000/svg" xmlns:xlink="http://www.w3.org/1999/xlink" version="1.1" id="mdi-controller-classic-outline" width="24" height="24" viewBox="0 0 24 24"><path d="M17.5,7A5.5,5.5 0 0,1 23,12.5A5.5,5.5 0 0,1 17.5,18C15.79,18 14.27,17.22 13.26,16H10.74C9.73,17.22 8.21,18 6.5,18A5.5,5.5 0 0,1 1,12.5A5.5,5.5 0 0,1 6.5,7H17.5M6.5,9A3.5,3.5 0 0,0 3,12.5A3.5,3.5 0 0,0 6.5,16C7.9,16 9.1,15.18 9.66,14H14.34C14.9,15.18 16.1,16 17.5,16A3.5,3.5 0 0,0 21,12.5A3.5,3.5 0 0,0 17.5,9H6.5M5.75,10.25H7.25V11.75H8.75V13.25H7.25V14.75H5.75V13.25H4.25V11.75H5.75V10.25M16.75,12.5A1,1 0 0,1 17.75,13.5A1,1 0 0,1 16.75,14.5A1,1 0 0,1 15.75,13.5A1,1 0 0,1 16.75,12.5M18.75,10.5A1,1 0 0,1 19.75,11.5A1,1 0 0,1 18.75,12.5A1,1 0 0,1 17.75,11.5A1,1 0 0,1 18.75,10.5Z" /></svg>
